X:1
T:Mūžam dzīvot
T:M. Celminskis
T:Mūžam dzīvot
C:M. Celminskis
%%score [ ( 1 2 ) ( 3 4 ) ]
L:1/8
Q:1/4=60
M:4/4
K:Ab
V:1 treble nm="P1"
V:2 treble 
V:3 bass nm="P2"
V:4 bass 
V:1
!p!"^Lento" A2 F2 A2 G2 | B2 c2 A2 F2 |!<(! c2 A2 c2!<)! B2 | d2!>(! c2!>)! c4 |:!mp! e2 c2 d2 d2 | %5
w: 1. žam dzī- vot,|mū- žam dzī- vot,|Dievs, liec vi- siem|mi- ru- šiem!|1. klau- si, ko|
w: 2. kai Ta- vā|svē- tā gais- mā|dvē- se- le var|plaukt kā zieds.|2. at- stāj to|
w: 3. sus dzī- vei|mū- žī- ga- jai|at- pir- ka Kungs|Gol- ga- tā.|3. pa sa- vu|
 d2 B2!>(! c2!>)! B2 |"^rit."!<(! A2 B2!<)! c2 d2 |!>(! A2 G2!>)! !fermata!F4 :| %8
w: mēs šeit lū- dzam|šo- dien kap- sē-|tā par tiem.|
w: tum- sas bais- mā,|ie- stā- sies kad|mū- ža riets.|
w: de- bess ce- ļu,|mī- ļais Dievs, Tu|va- di mūs.|
[K:G][M:4/4]!p!"^Lento"[Q:1/4=60] G2 E2 G2 F2 | A2 B2 G2 E2 |!<(! B2 G2 B2!<)! A2 | %11
w: 1. žam dzī- vot,|mū- žam dzī- vot,|Dievs, liec vi- siem|
w: 2. kai Ta- vā|svē- tā gais- mā|dvē- se- le var|
w: 3. sus dzī- vei|mū- žī- ga- jai|at- pir- ka Kungs|
 c2!>(! B2!>)! B4 |:!mp! d2 B2 c2 c2 | c2 A2!>(! B2!>)! A2 |"^rit."!<(! G2 A2!<)! B2 c2 | %15
w: mi- ru- šiem!|1. klau- si, ko|mēs šeit lū- dzam|šo- dien kap- sē-|
w: plaukt kā zieds.|2. at- stāj to|tum- sas bais- mā,|ie- stā- sies kad|
w: Gol- ga- tā.|3. pa sa- vu|de- bess ce- ļu,|mī- ļais Dievs, Tu|
!>(! G2 F2!>)! !fermata!E4 :|[K:F][M:4/4]!p!"^Lento"[Q:1/4=60] F2 D2 F2 E2 | G2 A2 F2 D2 | %18
w: tā par tiem.|1. žam dzī- vot,|mū- žam dzī- vot,|
w: mū- ža riets.|2. kai Ta- vā|svē- tā gais- mā|
w: va- di mūs.|3. sus dzī- vei|mū- žī- ga- jai|
!<(! A2 F2 A2!<)! G2 | B2!>(! A2!>)! A4 |:!mp! c2 A2 B2 B2 | B2 G2!>(! A2!>)! G2 | %22
w: Dievs, liec vi- siem|mi- ru- šiem!|1. klau- si, ko|mēs šeit lū- dzam|
w: dvē- se- le var|plaukt kā zieds.|2. at- stāj to|tum- sas bais- mā,|
w: at- pir- ka Kungs|Gol- ga- tā.|3. pa sa- vu|de- bess ce- ļu,|
"^rit."!<(! F2 G2!<)! A2 B2 |!>(! F2 E2!>)! !fermata!D4 :| %24
w: šo- dien kap- sē-|tā par tiem.|
w: ie- stā- sies kad|mū- ža riets.|
w: mī- ļais Dievs, Tu|va- di mūs.|
V:2
 F2 F2 F2 D2 | F2 G2 F2 F2 | A2 F2 F2 F2 | G2 G2 A4 |: A2 A2 A2 A2 | F2 G2 G2 G2 | F2 F2 F2 F2 | %7
 (F=D) =E2 F4 :|[K:G][M:4/4] E2 E2 E2 C2 | E2 F2 E2 E2 | G2 E2 E2 E2 | F2 F2 G4 |: G2 G2 G2 G2 | %13
 E2 F2 F2 F2 | E2 E2 E2 E2 | (E^C) ^D2 E4 :|[K:F][M:4/4] D2 D2 D2 B,2 | D2 E2 D2 D2 | F2 D2 D2 D2 | %19
 E2 E2 F4 |: F2 F2 F2 F2 | D2 E2 E2 E2 | D2 D2 D2 D2 | (D=B,) ^C2 D4 :| %24
V:3
 C2 C2 C2 B,2 | D2 C2 C2 A,2 | C2 E2 D2 D2 | F2 E2 E4 |: C2 E2 D2 D2 | B,2 D2 D2 C2 | %6
 C2 D2 C2 B,2 | C2 B,2 A,4 :|[K:G][M:4/4] B,2 B,2 B,2 A,2 | C2 B,2 B,2 G,2 | B,2 D2 C2 C2 | %11
 E2 D2 D4 |: B,2 D2 C2 C2 | A,2 C2 C2 B,2 | B,2 C2 B,2 A,2 | B,2 A,2 G,4 :| %16
[K:F][M:4/4] A,2 A,2 A,2 G,2 | B,2 A,2 A,2 F,2 | A,2 C2 B,2 B,2 | D2 C2 C4 |: A,2 C2 B,2 B,2 | %21
 G,2 B,2 B,2 A,2 | A,2 B,2 A,2 G,2 | A,2 G,2 F,4 :| %24
V:4
 F,2 A,2 F,2 F,2 | G,2 =E,2 F,2 F,2 | F,2 F,2 A,2 G,2 | E,2 E,2 A,4 |: A,2 _G,2 F,2 F,2 | %5
 =G,2 F,2 =E,2 E,2 | F,2 G,2 A,2 G,2 | C,2 C,2 !fermata!F,4 :|[K:G][M:4/4] E,2 G,2 E,2 E,2 | %9
 F,2 ^D,2 E,2 E,2 | E,2 E,2 G,2 F,2 | D,2 D,2 G,4 |: G,2 =F,2 E,2 E,2 | ^F,2 E,2 ^D,2 D,2 | %14
 E,2 F,2 G,2 F,2 | B,,2 B,,2 !fermata!E,4 :|[K:F][M:4/4] D,2 F,2 D,2 D,2 | E,2 ^C,2 D,2 D,2 | %18
 D,2 D,2 F,2 E,2 | C,2 C,2 F,4 |: F,2 _E,2 D,2 D,2 | =E,2 D,2 ^C,2 C,2 | D,2 E,2 F,2 E,2 | %23
 A,,2 A,,2 !fermata!D,4 :| %24

